components/2.0/icon/icons/icon-html5-22px.svg

<svg width="22" height="22" xmlns="http://www.w3.org/2000/svg"><path d="M2 2l2 16 7 2 7-2 2-16H2zm14 4H8v2h8v6l-5 3-5-3v-3h2v2l3 1 3-1v-3H6V4h10v2z" fill="#3D4752" fill-rule="evenodd"/></svg>

<?xml version="1.0" encoding="UTF-8" standalone="no"?>
<svg width="22px" height="22px" viewBox="0 0 22 22" version="1.1" xmlns="http://www.w3.org/2000/svg" xmlns:xlink="http://www.w3.org/1999/xlink" xmlns:sketch="http://www.bohemiancoding.com/sketch/ns">
    <!-- Generator: Sketch 3.4.4 (17249) - http://www.bohemiancoding.com/sketch -->
    <title>icon-html5-22px</title>
    <desc>Created with Sketch.</desc>
    <defs></defs>
    <g id="22px" stroke="none" stroke-width="1" fill="none" fill-rule="evenodd" sketch:type="MSPage">
        <g id="icon-html5-22px" sketch:type="MSArtboardGroup" fill="#3D4752">
            <path d="M2,2 L4,18 L11,20 L18,18 L20,2 L2,2 L2,2 Z M16,6 L8,6 L8,8 L16,8 L16,14 L11,17 L6,14 L6,11 L8,11 L8,13 L11,14 L14,13 L14,10 L6,10 L6,4 L16,4 L16,6 L16,6 Z" id="Shape" sketch:type="MSShapeGroup"></path>
        </g>
    </g>
</svg>
